X:1837
T:The Blackbird And The Hen
M:6/8
L:1/8
B:O'Neill's 1837
Z:"Transcribed by Bob Safranek, rjs@gsp.org"
K:A
e/d/|.ccd .BBc|.AAB/c/ c.d2 B|fd.B c/d/e.c|cBAA A2 e/d/|
ccd    BBc|AAB/c/ cd2  b|fdB  c/d/eb|baa a2 :|
|:d/c/|de.f ged/c/|def/g/ a2 a|age.e edB.A|Bee e2 e/d/|
.cc/e/d/c/ .BB/d/c/B/|.AA/B/c/A/ d2 B|\
.fe/d/c/B/ c/d/e/c/d/B/|BAA A2 :|
